img/icons/telegram.svg

<svg width="27" height="24" viewBox="0 0 27 24" fill="none" xmlns="http://www.w3.org/2000/svg">
<path fill-rule="evenodd" clip-rule="evenodd" d="M20.4959 23.8029C22.1135 24.5318 22.7201 23.0046 22.7201 23.0046L27 0.860426C26.9663 -0.632049 25.0117 0.270378 25.0117 0.270378L1.05102 9.95411C1.05102 9.95411 -0.0947824 10.3706 0.00631749 11.0995C0.107417 11.8284 1.01732 12.1755 1.01732 12.1755L7.00365 14.2421C6.99466 14.3158 7.00227 14.391 7.02651 14.4621L8.68795 19.7867C8.69465 19.8063 8.70275 19.8246 8.71208 19.8415C8.94803 20.6279 9.14339 21.2736 9.24011 21.5815C9.57711 22.7269 9.88041 22.7616 9.88041 22.7616C10.2174 22.9005 10.5207 22.6575 10.5207 22.6575L14.4299 19.0131L20.4959 23.8029ZM8.71208 19.8415C8.85049 20.0922 9.25802 20.0415 9.32425 19.7175L9.7131 16.4675C9.7131 16.3292 9.7838 16.2254 9.88985 16.1563C11.2331 14.9807 21.2371 6.19861 21.6613 5.78371C22.1209 5.29965 21.9795 5.2305 21.9795 5.2305C22.0148 4.71187 21.1311 5.2305 21.1311 5.2305L7.23861 13.8743C7.09923 13.9652 7.02091 14.1009 7.00365 14.2421L7.04961 14.258C7.04961 14.258 8.04369 17.6139 8.71208 19.8415Z" fill="#121212"/>
</svg>

<svg width="27" height="24" fill="none" xmlns="http://www.w3.org/2000/svg"><path fill-rule="evenodd" clip-rule="evenodd" d="M20.496 23.803c1.617.729 2.224-.798 2.224-.798L27 .86c-.034-1.492-1.988-.59-1.988-.59L1.05 9.954S-.095 10.371.006 11.1c.101.728 1.011 1.075 1.011 1.075l5.987 2.067a.496.496 0 00.023.22l1.661 5.325c.007.02.015.038.024.055.236.786.431 1.432.528 1.74.337 1.145.64 1.18.64 1.18.337.139.64-.105.64-.105l3.91-3.644 6.066 4.79zM8.712 19.84c.138.251.546.2.612-.123l.39-3.25c0-.139.07-.243.176-.312C11.233 14.981 21.237 6.2 21.66 5.784c.46-.484.319-.553.319-.553.035-.52-.849 0-.849 0L7.24 13.873a.512.512 0 00-.235.368l.046.016s.994 3.356 1.662 5.584z" fill="#121212"/></svg>
